src/assets/svgs/heart.svg

<?xml version="1.0" encoding="utf-8"?><!-- Uploaded to: SVG Repo, www.svgrepo.com, Generator: SVG Repo Mixer Tools -->
<svg width="800px" height="800px" viewBox="0 0 24 24" fill="none" xmlns="http://www.w3.org/2000/svg">
<path d="M8.96173 18.9109L9.42605 18.3219L8.96173 18.9109ZM12 5.50063L11.4596 6.02073C11.601 6.16763 11.7961 6.25063 12 6.25063C12.2039 6.25063 12.399 6.16763 12.5404 6.02073L12 5.50063ZM15.0383 18.9109L15.5026 19.4999L15.0383 18.9109ZM7.00061 16.4209C6.68078 16.1577 6.20813 16.2036 5.94491 16.5234C5.68169 16.8432 5.72758 17.3159 6.04741 17.5791L7.00061 16.4209ZM2.34199 13.4115C2.54074 13.7749 2.99647 13.9084 3.35988 13.7096C3.7233 13.5108 3.85677 13.0551 3.65801 12.6917L2.34199 13.4115ZM2.75 9.1371C2.75 6.98623 3.96537 5.18252 5.62436 4.42419C7.23607 3.68748 9.40166 3.88258 11.4596 6.02073L12.5404 4.98053C10.0985 2.44352 7.26409 2.02539 5.00076 3.05996C2.78471 4.07292 1.25 6.42503 1.25 9.1371H2.75ZM8.49742 19.4999C9.00965 19.9037 9.55954 20.3343 10.1168 20.6599C10.6739 20.9854 11.3096 21.25 12 21.25V19.75C11.6904 19.75 11.3261 19.6293 10.8736 19.3648C10.4213 19.1005 9.95208 18.7366 9.42605 18.3219L8.49742 19.4999ZM15.5026 19.4999C16.9292 18.3752 18.7528 17.0866 20.1833 15.4758C21.6395 13.8361 22.75 11.8026 22.75 9.1371H21.25C21.25 11.3345 20.3508 13.0282 19.0617 14.4798C17.7469 15.9603 16.0896 17.1271 14.574 18.3219L15.5026 19.4999ZM22.75 9.1371C22.75 6.42503 21.2153 4.07292 18.9992 3.05996C16.7359 2.02539 13.9015 2.44352 11.4596 4.98053L12.5404 6.02073C14.5983 3.88258 16.7639 3.68748 18.3756 4.42419C20.0346 5.18252 21.25 6.98623 21.25 9.1371H22.75ZM14.574 18.3219C14.0479 18.7366 13.5787 19.1005 13.1264 19.3648C12.6739 19.6293 12.3096 19.75 12 19.75V21.25C12.6904 21.25 13.3261 20.9854 13.8832 20.6599C14.4405 20.3343 14.9903 19.9037 15.5026 19.4999L14.574 18.3219ZM9.42605 18.3219C8.63014 17.6945 7.82129 17.0963 7.00061 16.4209L6.04741 17.5791C6.87768 18.2624 7.75472 18.9144 8.49742 19.4999L9.42605 18.3219ZM3.65801 12.6917C3.0968 11.6656 2.75 10.5033 2.75 9.1371H1.25C1.25 10.7746 1.66995 12.1827 2.34199 13.4115L3.65801 12.6917Z" fill="#1C274C"/>
</svg>

<svg width="800" height="800" viewBox="0 0 24 24" fill="none" xmlns="http://www.w3.org/2000/svg">
  <path
    d="M8.962 18.91l.464-.588-.464.589zM12 5.5l-.54.52a.75.75 0 001.08 0L12 5.5zm3.038 13.41l.465.59-.465-.59zm-8.037-2.49a.75.75 0 00-.954 1.16l.954-1.16zm-4.659-3.009a.75.75 0 101.316-.72l-1.316.72zm.408-4.274c0-2.15 1.215-3.954 2.874-4.713 1.612-.737 3.778-.541 5.836 1.597l1.08-1.04C10.1 2.444 7.264 2.025 5 3.06 2.786 4.073 1.25 6.425 1.25 9.137h1.5zM8.497 19.5c.513.404 1.063.834 1.62 1.16.557.325 1.193.59 1.883.59v-1.5c-.31 0-.674-.12-1.126-.385-.453-.264-.922-.628-1.448-1.043L8.497 19.5zm7.006 0c1.426-1.125 3.25-2.413 4.68-4.024 1.457-1.64 2.567-3.673 2.567-6.339h-1.5c0 2.197-.9 3.891-2.188 5.343-1.315 1.48-2.972 2.647-4.488 3.842l.929 1.178zM22.75 9.137c0-2.712-1.535-5.064-3.75-6.077-2.264-1.035-5.098-.616-7.54 1.92l1.08 1.04c2.058-2.137 4.224-2.333 5.836-1.596 1.659.759 2.874 2.562 2.874 4.713h1.5zm-8.176 9.185c-.526.415-.995.779-1.448 1.043-.452.264-.816.385-1.126.385v1.5c.69 0 1.326-.265 1.883-.59.558-.326 1.107-.756 1.62-1.16l-.929-1.178zm-5.148 0c-.796-.627-1.605-1.226-2.425-1.901l-.954 1.158c.83.683 1.708 1.335 2.45 1.92l.93-1.177zm-5.768-5.63a7.252 7.252 0 01-.908-3.555h-1.5c0 1.638.42 3.046 1.092 4.274l1.316-.72z"
    fill="#ffffff" />
</svg>
